!!!!SEGMENT: pl-kk--kk-i-513--014_haser-august-ferdinand-miserere-docebo-iniquos-vias-tuas.krn
!!!id: 17xx:1854
!!!COM: Häser, August Ferdinand
!!!OTL: Miserere - Docebo iniquos vias tuas
!!!PDT:
!!!SMS-siglum: PL-Kk
!!!SMS-shelfmark: Kk.I.513
!!!SMS-variant:
!!!SMS-altvar:
!!!NIFC-rismID: 1001138506
!!!system-decoration: [(s1,s2,s3,s4)][(s5,s6)]
**kern	**kern	**kern	**text	**dynam	**kern	**text	**dynam	**kern	**text	**dynam	**kern	**text
*part6	*part5	*part4	*part4	*part4	*part3	*part3	*part3	*part2	*part2	*part2	*part1	*part1
*staff6	*staff5	*staff4	*staff4	*	*staff3	*staff3	*	*staff2	*staff2	*	*staff1	*staff1
*	*I"[Organo]	*I"Basso.	*	*	*I"Tenore.	*	*	*I"Alto	*	*	*I"Soprano.	*
*	*I'[Org]	*I'B	*	*	*I'T	*	*	*I'A	*	*	*I'S	*
*clefF4	*clefG2	*clefF4	*	*	*clefC4	*	*	*clefG2	*	*	*clefG2	*
*k[]	*k[]	*k[]	*	*	*k[]	*	*	*k[]	*	*	*k[]	*
*M3/4	*M3/4	*M3/4	*	*	*M3/4	*	*	*M3/4	*	*	*M3/4	*
=1	=1	=1	=1	=1	=1	=1	=1	=1	=1	=1	=1	=1
*2\right	*2\right	*2\right	*	*	*2\right	*	*	*	*	*	*2\right	*
!LO:TX:t=P:problem:all\right:global	!LO:TX:t=P:problem:all\right:global	!LO:TX:t=P:problem:all\right:global	!	!	!LO:TX:t=P:problem:all\right:global	!	!	!	!	!	!LO:TX:t=P:problem:all\right:global	!
!	!LO:TX:t=P:w źródle brak oznaczenia tempa:problem	!	!	!	!	!	!	!LO:TX:t=P:w źródle brak oznaczenia tempa:problem	!	!	!	!
!	!	!	!	!	!	!	!	!LO:TX:a:Bi:t=No 14.:problem:'No 14.' znajduje się przed kluczem i oznaczeniem metrum na pięciolinii	!	!	!LO:TX:a:Bi:t=N 14.:problem:'N 14.' znajduje się przed kluczem i oznaczeniem metrum na pięciolinii	!
!	!LO:TX:a:Bi:t=No 14.:problem:'No 14.' znajduje się przed kluczem i oznaczeniem metrum na pięciolinii	!LO:TX:a:Bi:t=N 14.:problem:'N 14.' znajduje się przed kluczem i oznaczeniem metrum na pięciolinii	!	!	!LO:TX:a:Bi:t=No 14.:problem:'No 14.' znajduje się przed kluczem i oznaczeniem metrum na pięciolinii	!	!	!	!	!	!	!
!	!	!	!	!	!	!	!	!	!	!	!LO:TX:t=P:problem:w źródle takt 1 zapisany jako przedtakt	!
!	!	!LO:TX:a:Bi:t=Grave.:rj	!	!	!LO:TX:a:Bi:t=Grave:rj	!	!	!	!	!	!LO:TX:a:Bi:t=Grave.:rj	!
4r	4r	4r	.	.	4r	.	.	4r	.	.	4ryy	.
!	!	!	!	!	!LO:TX:a:Bi:t=tutti	!	!	!	!	!	!	!
4r	4r	4r	.	.	4r	.	.	4r	.	.	4ryy	.
!	!	!LO:TX:a:Bi:t=tutti.	!	!	!	!	!	!	!	!	!	!
8.r	8.r	8.r	.	.	8.r	.	.	8.r	.	.	8.r	.
!	!	!	!	!LO:DY:a	!	!	!	!LO:TX:a:Bi:t=tutti	!	!	!	!
16G 16GG\	16g\	16G\	Do-	f	16G/	Do-	.	16g/	Do-	.	16g/	Do-
=2	=2	=2	=2	=2	=2	=2	=2	=2	=2	=2	=2	=2
4c 4C\	4ee 4g\	4c\	-ce-	.	4c\	-ce-	.	4g/	ce-	.	4een\	-ce-
2G 2C\	2cc 2e\	8c\	-bo	.	8e\	-bo	.	8g/	-bo	.	8cc\	-bo
.	.	8c\	do-	.	8e\	do-	.	8g/	do-	.	8cc\	do-
.	.	8c\	-ce-	.	8e\	-ce-	.	8g/	-ce-	.	8cc\	-ce-
.	.	16c\	-bo	.	16e\	-bo	.	16g/	-bo	.	16cc\	-bo
.	.	16c\	i-	.	16e\	i-	.	16g/	i-	.	16cc\	i-
=3	=3	=3	=3	=3	=3	=3	=3	=3	=3	=3	=3	=3
*	*^	*	*	*	*	*	*	*	*	*	*	*
2G 2D\	4cc/	2f\	4d\	-ni-	.	4f\	-ni-	.	4g/	-ni-	.	4cc\	-ni-
.	4b/	.	4d\	-qvos	.	4f\	-qvos	.	4g/	-qvos	.	4b/	-qvos
8.r	8.r	4ryy	8.r	.	.	8.r	.	.	8.r	.	.	8.r	.
16G 16GG\	16g/	.	16G\	do-	.	16G/	do-	.	16g/	do-	.	16g/	do-
=4	=4	=4	=4	=4	=4	=4	=4	=4	=4	=4	=4	=4	=4
4d 4G\	4ff/	4b\	4G\	-ce-	.	4d\	-ce-	.	4b/	-ce-	.	4ff\	-ce-
8f 8G\	8dd/	8b\	8G\	-bo	.	8f\	-bo	.	8b/	-bo	.	8dd\	-bo
4.f 4.B\	4.dd/	4.g\	4B\	vi-	.	4f\	vi-	.	4g/	vi-	.	4dd\	vi-
.	.	.	8B\	-as	.	8f\	-as	.	8g/	-as	.	8dd\	-as
=5	=5	=5	=5	=5	=5	=5	=5	=5	=5	=5	=5	=5	=5
4c\	4dd/	4g 4f\	4c\	tu-	.	4f\	tu-	.	4g/	tu-	.	4dd\	tu-
4C/	4cc 4g 4e/	4ryy	4C/	-as	.	4e\	-as	.	4g/	-as	.	4cc\	-as
4r	8r	4ryy	4r	.	.	4r	.	.	4r	.	.	8r	.
.	8ee/	.	.	.	.	.	.	.	.	.	.	8ee\	do-
!	!	!	!LO:LB:g=original	!	!	!LO:LB:g=original	!	!	!LO:LB:g=original	!	!	!LO:LB:g=original	!
=6	=6	=6	=6	=6	=6	=6	=6	=6	=6	=6	=6	=6	=6
8r	2.a/	8r	4r	.	.	8r	.	.	8r	.	.	2a/	-ce-
!	!	!	!	!	!	!	!	!LO:DY:a:rj	!	!	!	!	!
8c\	.	8e\	.	.	.	8c\	do-	p	8e/	do-	.	.	.
8d\L	.	8f\L	4r	.	.	8d\L	-ce-	.	8f/L	-ce-	.	.	.
8c\	.	8e\	.	.	.	8c\J	.	.	8e/	.	.	.	.
8B\	.	8d\	8r	.	.	8B\L	-bo	.	8d/J	.	.	8a/	-bo
!	!	!	!	!	!LO:DY:a:rj	!	!	!	!	!	!	!	!
8AJ 8AA\	.	8c\J	8AA/	do-	f	8A\J	do-	.	8c/	-bo	.	8a/	do-
=7	=7	=7	=7	=7	=7	=7	=7	=7	=7	=7	=7	=7	=7
*^	*	*	*	*	*	*	*	*	*	*	*	*	*
2B/	8D\L	4a/	4f\	8D/L	-ce-	.	2B\	-ce-	.	4f/	do-	.	4a/	-ce-
.	8BB\J	.	.	8BB/J	.	.	.	.	.	.	.	.	.	.
.	4.E\	4.g#X/	8e\L	4.E\	-bo	.	.	.	.	8e/L	-ce-	.	4.g#X/	-bo
.	.	.	8f\J	.	.	.	.	.	.	8f/J	.	.	.	.
4B/	.	.	4e\	.	.	.	8B\	-bo	.	8e/	-bo	.	.	.
!	!	!LO:SIC:s=8b:v	!	!	!	!	!	!	!	!	!	!	!	!
.	8G#X\	8a/	.	8G#X\	i-	.	8e\	i-	.	8e/	i-	.	8b/	i-
!LO:LB:g=original	!	!LO:LB:g=original	!	!	!	!	!	!	!	!	!	!	!	!
*v	*v	*	*	*	*	*	*	*	*	*	*	*	*	*
=8	=8	=8	=8	=8	=8	=8	=8	=8	=8	=8	=8	=8	=8
4e 4A\	2.cc/	8r	8A\L	-ni-	.	4e\	-ni-	.	8cc\L	-ni-	.	4.cc\	-ni-
.	.	8b\L	8Gn\	.	.	.	.	.	8bn\	.	.	.	.
8fL 8B\	.	8a\	8Fn\J	.	.	8f\	-qvos	.	8a\J	.	.	.	.
8cJ 8A\	.	8g\	8E/	-qvos	.	8c\	vi-	.	8gn/	-qvis	.	8cc\	-qvos
4c 4A\	.	8f\	8D/	vi-	.	8c\	-as	.	8f/	vi-	.	8cc\	vi-
.	.	8e\J	8C/	-as	.	8c\	tu-	.	8e/	-as	.	8cc\	-as
=9	=9	=9	=9	=9	=9	=9	=9	=9	=9	=9	=9	=9	=9
*^	*	*	*	*	*	*	*	*	*	*	*	*	*
2d/	8F\L	4cc/	4a\	8F\L	tu-	.	2d\	.	.	4a/	t[u]-	.	4cc\	tu-
.	8D\J	.	.	8D\J	.	.	.	.	.	.	.	.	.	.
.	[<4G\	4.b/	8g\L	4.G\	-as	.	.	.	.	8g/L	.	.	4.b\	-as
.	.	.	8a\	.	.	.	.	.	.	8a/J	.	.	.	.
8d/L	4G\]	.	8g\	.	.	.	8d\	-as	.	8g/	-as	.	.	.
8B/J	.	8dd/	8f\J	8G\	et	.	8B\	et	.	8f/	et	.	8dd\	et
!	!	!	!	!	!	!	!	!	!	!LO:LB:g=original	!	!	!	!
*v	*v	*	*	*	*	*	*	*	*	*	*	*	*	*
*	*v	*v	*	*	*	*	*	*	*	*	*	*	*
=10	=10	=10	=10	=10	=10	=10	=10	=10	=10	=10	=10	=10
!	!	!	!	!LO:DY:a:rj	!	!	!LO:DY:a:rj	!	!	!LO:DY:a:rj	!	!
4c\	4ee 4e/	8.c\	im-	ff	8.c\	im-	ff	8.e/	im-	f	8.ee\	im-
.	.	16c\	-pi-	.	16c\	-pi-	.	16e/	-pi-	.	16ee\	-pi-
!LO:TX:a:t=P:mixed beam:problem	!	!	!	!	!	!	!	!	!	!	!	!
8e>\ 8B/L	8ddL 8g#X 8e\	8B\	-i	.	8e\	-i	.	8g#X/	-i	.	8dd\	-i
8e>\ 8A/	8cc 8a 8e\	8A\	ad	.	8e\	ad	.	8a/	ad	.	8cc\	ad
8e>\ 8G/	8b 8e\	8G\	te	.	8e\	te	.	8b/	te	.	8b\	te
8a>\ 8BJ 8F#X/	8dd#XJ 8a\	8F#X\	ad	.	8B\	ad	.	8a/	ad	.	8dd#X\	ad
!	!	!	!LO:LB:g=original	!	!	!LO:LB:g=original	!	!	!	!	!LO:LB:g=original	!
=11	=11	=11	=11	=11	=11	=11	=11	=11	=11	=11	=11	=11
*^	*	*	*	*	*	*	*	*	*	*	*	*
4G/	4G\	4ee 4b/	4G\	te	.	4B\	te	.	4b/	te	.	4ee\	te
8r	8ryy	8r	8r	.	.	8r	.	.	8r	.	.	8r	.
!LO:TX:a:t=P:mixed beam:problem	!	!	!	!	!	!	!	!	!	!	!	!	!
8d#X>\ 8A/L	8F\L	8ccL 8d#X/	8F#X\	con-	.	8A\L	con-	.	8d#X/L	con-	.	(>8cc\L	con-
8e>\ 8B/	8G\	8b 8e/	8G\L	.	.	8B\J	.	.	8e/	.	.	8b\J)	.
8f#X>\ 8c/J	8A\J	8aJ 8f#X/	8A\J	-ver-	.	8c\	-ver-	.	8f#X/J	-ver-	.	8a/	-ver-
*v	*v	*	*	*	*	*	*	*	*	*	*	*	*
=12	=12	=12	=12	=12	=12	=12	=12	=12	=12	=12	=12	=12
*	*^	*	*	*	*	*	*	*	*	*	*	*
*	*	*Xtuplet	*	*	*	*	*	*	*	*	*	*	*
!	!	!	!LO:TX:t=P:problem:w źródle w taktach 12-15 poprawki w tekście	!	!	!	!	!	!	!	!	!	!
2B\	4g/	2e\	2B\	.	.	[>2B\	-ten-	.	2e/	-ten-	.	(<4g/	-ten-
.	2f#X/	.	.	.	.	.	.	.	.	.	.	2f#X/)	.
!	!	!LO:TX:a:t=P:mixed beam:problem	!	!	!	!	!	!	!	!	!	!	!
4BB\	.	12B</L	4BB/	-ten-	.	8B\L]	.	.	4d#X/	.	.	.	.
.	.	12d#X\	.	.	.	.	.	.	.	.	.	.	.
.	.	.	.	.	.	8A\J	.	.	.	.	.	.	.
.	.	12A</J	.	.	.	.	.	.	.	.	.	.	.
*	*	*tuplet	*	*	*	*	*	*	*	*	*	*	*
*	*v	*v	*	*	*	*	*	*	*	*	*	*	*
=13	=13	=13	=13	=13	=13	=13	=13	=13	=13	=13	=13	=13
*^	*	*	*	*	*	*	*	*	*	*	*	*
8G/	2.C\	8e/	8C/	-tur	.	8G/	-tur	.	8e/	-tur	.	8e/	-tur
4G/	.	2ee 2e/	2C/	con-	.	4G/	con-	.	2e/	con-	.	2ee\	con-
8G#X/L	.	.	.	.	.	8G#X/L	.	.	.	.	.	.	.
8A/	.	.	.	.	.	8A/J	.	.	.	.	.	.	.
!	!	!	!	!	!	!	!	!	!	!	!LO:DY:a:rj	!	!
8A#X/J	.	8ee 8e/	8C/	-ver-	.	8A#X/	-ver-	.	8e/	-ver-	ff	8ee\	-ver-
*v	*v	*	*	*	*	*	*	*	*	*	*	*	*
=14	=14	=14	=14	=14	=14	=14	=14	=14	=14	=14	=14	=14
*	*^	*	*	*	*	*	*	*	*	*	*	*
2.B 2.BB\	2ee/	4g\	2.BB/	-ten-	.	2.B\	-ten-	.	(<4g/	-ten-	.	2ee\	-ten-
.	.	2f#X/	.	.	.	.	.	.	2f#X/)	.	.	.	.
.	4dd#X/	.	.	.	.	.	.	.	.	.	.	4dd#X\	.
*	*v	*v	*	*	*	*	*	*	*	*	*	*	*
=15	=15	=15	=15	=15	=15	=15	=15	=15	=15	=15	=15	=15
2B 2E\	2ee 2g\	2E\	-tur.	.	2.B\	-tur.	.	2g/	-tur	.	2ee\	-tur.
4r	4r	4r	.	.	.	.	.	4r	.	.	4r	.
==	==	==	==	==	==	==	==	==	==	==	==	==
*-	*-	*-	*-	*-	*-	*-	*-	*-	*-	*-	*-	*-
!!title: @{OTL};
!!!RDF**kern: > = above
!!!RDF**kern: < = below
!!!ENC: Katarzyna Serwa
!!!END: 2020-01-01
!!!EED: Wojciech Jakubiak-Danek
!!!EST: 2021-01-03
!!!URL-scan: http://repozytorium.nifc.pl/skany/pl-kk-nut--i-513
!!!ONB-nifc:
